X:1
T:Lady Heriet Georgina Hamilton
T:Lady Heriet Georgina Hamilton
T:William Marshall
C:William Marshall
%%score { 1 ( 2 3 ) }
L:1/8
M:4/4
K:F
V:1 treble 
V:2 bass 
V:3 bass 
V:1
 d | c>FA>F d2 df | c>FA>F [Fd]G[EG]f | c>FA>F d2 df | b/a/g/f/ c/d/e/g/ fFF :| f | %6
 b/a/g/f/ af g/f/e/d/ cA | B>c d/c/B/A/ BGGf | b/a/g/f/ g/f/e/d/ cAAd | [Ac]f[Be]g [ca]ffg | %10
 b/a/g/f/ a/g/f/e/ g/f/e/d/ cA | [FB]>c d/c/B/A/ [EB]GGA | F/G/A/B/ cA d2 Bd | EGT[Ec]>B AF[A,F] |] %14
V:2
 z | [F,,F,]2 [F,,F,]2 [B,,B,]2 [B,,B,]2 | [A,,A,]2 [F,,F,]2 [B,,B,]2 [C,C]2 | %3
 [A,,A,]2 [F,,F,]2 [B,,B,]2 [B,,B,]2 | [B,,B,]2 [C,B,]2 [F,A,]2 [F,,F,] :| z | %6
 [F,A,C]2 [F,A,C]2 [F,B,D]2 [F,A,C]2 | [F,B,D]2 [F,A,C]2 [C,C]2 [C,C]2 | %8
 [F,A,C]2 [F,B,D]2 [F,A,C]2 [F,A,C]2 | [F,C]2 [C,C]2 [F,A,C]2 [F,A,C]2 | %10
 [F,A,C]2 [F,A,C]2 [F,B,D]2 [F,A,C]2 | D>C B,2 C2 C2 | [F,A,C]2 [F,A,C]2 [F,B,D]2 [F,B,D]2 | %13
 [C,C]2 [C,C]2 [F,,F,]2 [F,,F,] |] %14
V:3
 x | x8 | x8 | x8 | x7 :| x | x8 | x8 | x8 | x8 | x8 | F,4 C,2 C,2 | x8 | x7 |] %14

